public/app/img/instagram-logo.svg

<?xml version="1.0" encoding="UTF-8"?>
<svg width="27px" height="27px" viewBox="0 0 27 27" version="1.1" xmlns="http://www.w3.org/2000/svg" xmlns:xlink="http://www.w3.org/1999/xlink">
    <!-- Generator: Sketch 46.2 (44496) - http://www.bohemiancoding.com/sketch -->
    <title>Group</title>
    <desc>Created with Sketch.</desc>
    <defs></defs>
    <g id="Page-1" stroke="none" stroke-width="1" fill="none" fill-rule="evenodd">
        <g id="Main" transform="translate(-643.000000, -625.000000)" fill="#FFFFFF">
            <g id="Form" transform="translate(488.000000, 506.000000)">
                <g id="Group" transform="translate(155.000000, 119.000000)">
                    <g id="icons/picture">
                        <g id="instagram-logo">
                            <path d="M19.4409529,0 L7.40975294,0 C3.32401765,0 0,3.32417647 0,7.40991176 L0,19.4411118 C0,23.5270059 3.32401765,26.8510235 7.40975294,26.8510235 L19.4409529,26.8510235 C23.5270059,26.8510235 26.8510235,23.5268471 26.8510235,19.4411118 L26.8510235,7.40991176 C26.8511824,3.32417647 23.5270059,0 19.4409529,0 Z M24.4688294,19.4411118 C24.4688294,22.2133765 22.2133765,24.4686706 19.4411118,24.4686706 L7.40975294,24.4686706 C4.63764706,24.4688294 2.38235294,22.2133765 2.38235294,19.4411118 L2.38235294,7.40991176 C2.38235294,4.63780588 4.63764706,2.38235294 7.40975294,2.38235294 L19.4409529,2.38235294 C22.2132176,2.38235294 24.4686706,4.63780588 24.4686706,7.40991176 L24.4686706,19.4411118 L24.4688294,19.4411118 Z" id="Shape" fill-rule="nonzero"></path>
                            <path d="M13.4255118,6.507 C9.61041176,6.507 6.50668235,9.61072941 6.50668235,13.4258294 C6.50668235,17.2407706 9.61041176,20.3443412 13.4255118,20.3443412 C17.2406118,20.3443412 20.3443412,17.2407706 20.3443412,13.4258294 C20.3443412,9.61072941 17.2406118,6.507 13.4255118,6.507 Z M13.4255118,17.9618294 C10.9242,17.9618294 8.88903529,15.9269824 8.88903529,13.4256706 C8.88903529,10.9242 10.9240412,8.88919412 13.4255118,8.88919412 C15.9269824,8.88919412 17.9619882,10.9242 17.9619882,13.4256706 C17.9619882,15.9269824 15.9268235,17.9618294 13.4255118,17.9618294 Z" id="Shape" fill-rule="nonzero"></path>
                            <path d="M20.6345118,4.48692353 C20.1755118,4.48692353 19.7246118,4.67274706 19.4004529,4.99833529 C19.0747059,5.32233529 18.8874529,5.77339412 18.8874529,6.23398235 C18.8874529,6.69314118 19.0748647,7.14404118 19.4004529,7.46962941 C19.7244529,7.79362941 20.1755118,7.98104118 20.6345118,7.98104118 C21.0951,7.98104118 21.5445706,7.79362941 21.8701588,7.46962941 C22.1957471,7.14404118 22.3815706,6.69298235 22.3815706,6.23398235 C22.3815706,5.77339412 22.1957471,5.32233529 21.8701588,4.99833529 C21.5461588,4.67274706 21.0951,4.48692353 20.6345118,4.48692353 Z" id="Shape" fill-rule="nonzero"></path>
                        </g>
                    </g>
                </g>
            </g>
        </g>
    </g>
</svg>

<svg width="27" height="27" viewBox="0 0 27 27" xmlns="http://www.w3.org/2000/svg"><title>Group</title><g fill-rule="nonzero" fill="#FFF"><path d="M19.44 0H7.41C3.324 0 0 3.324 0 7.41v12.03c0 4.087 3.324 7.41 7.41 7.41h12.03c4.087 0 7.41-3.323 7.41-7.41V7.41c0-4.086-3.323-7.41-7.41-7.41zm5.03 19.44c0 2.773-2.257 5.03-5.03 5.03H7.41c-2.772 0-5.028-2.257-5.028-5.03V7.41c0-2.772 2.256-5.028 5.028-5.028h12.03c2.773 0 5.03 2.256 5.03 5.028v12.03z"/><path d="M13.426 6.507c-3.816 0-6.92 3.104-6.92 6.92 0 3.814 3.104 6.917 6.92 6.917 3.815 0 6.918-3.103 6.918-6.918s-3.103-6.92-6.918-6.92zm0 11.455c-2.502 0-4.537-2.035-4.537-4.536 0-2.502 2.034-4.537 4.536-4.537 2.5 0 4.536 2.034 4.536 4.536 0 2.5-2.035 4.536-4.536 4.536zM20.635 4.487c-.46 0-.91.186-1.235.51-.325.325-.513.776-.513 1.237 0 .46.188.91.513 1.236.324.324.776.51 1.235.51.46 0 .91-.186 1.235-.51.326-.326.512-.777.512-1.236 0-.46-.186-.912-.512-1.236-.324-.325-.775-.51-1.235-.51z"/></g></svg>
